docs/public/static/sponsors/aptugo-light.svg

<svg width="137" height="30" viewBox="0 0 137 30" fill="none" xmlns="http://www.w3.org/2000/svg">
<path d="M28 16.0984C28 11.4261 31.7898 7.63863 36.4644 7.63863C41.1392 7.63863 44.929 11.4261 44.929 16.0984C44.929 20.7703 41.1392 24.5583 36.4644 24.5583C31.7899 24.5583 28 20.7703 28 16.0984ZM41.3005 16.0984C41.3005 13.4289 39.1354 11.2651 36.4645 11.2651C33.7939 11.2651 31.6287 13.4289 31.6287 16.0984C31.6287 18.7678 33.7939 20.9317 36.4645 20.9317C39.1354 20.9317 41.3005 18.7679 41.3005 16.0984Z" fill="#FF603D"/>
<path d="M50.6004 4.83075C50.6004 3.27101 49.3283 2 47.7654 2C46.2008 2 44.9287 3.27135 44.9287 4.83075C44.9287 6.39206 46.2008 7.66115 47.7654 7.66115C49.3283 7.66149 50.6004 6.39218 50.6004 4.83075Z" fill="#FF603D"/>
<path d="M73.9643 18.0227C73.7519 17.4589 73.4391 16.9722 73.035 16.5741C72.6296 16.1759 72.1364 15.8697 71.5702 15.6632C70.5654 15.298 69.2937 15.2696 67.9944 15.5293C67.4201 15.6427 66.8893 15.7957 66.4177 15.983C66.3229 16.0204 66.2522 16.0999 66.2282 16.1951L66.1962 16.3166C66.1847 16.363 66.1837 16.4107 66.195 16.4583C66.2327 16.624 66.259 16.8554 66.2738 17.1457C66.2886 17.4485 66.2988 17.7605 66.3035 18.0723C66.3092 18.3832 66.3115 18.6283 66.3115 18.8074V27.5688C66.3115 27.7402 66.4554 27.8785 66.6311 27.8785H68.0662C68.2432 27.8785 68.3859 27.7401 68.3859 27.5688V24.4381C68.5218 24.4631 68.6656 24.4857 68.8164 24.5073C69.0493 24.539 69.2788 24.5561 69.5014 24.5561C70.2207 24.5561 70.8829 24.4506 71.4673 24.242C72.0598 24.031 72.5701 23.719 72.9858 23.3174C73.4002 22.9158 73.7244 22.4213 73.9482 21.8474C74.1685 21.2814 74.2804 20.6347 74.2804 19.9259C74.2805 19.2194 74.1743 18.5784 73.9643 18.0227ZM71.5096 22.029C71.0758 22.493 70.3999 22.7278 69.5003 22.7278C69.2263 22.7278 68.9877 22.7142 68.7913 22.6858C68.6326 22.6631 68.4967 22.6371 68.3859 22.6064V18.0828C68.3859 17.8468 68.378 17.6109 68.362 17.3819C68.3609 17.3727 68.3609 17.3648 68.3597 17.3558C68.4408 17.3319 68.5264 17.3105 68.6155 17.2888C68.9169 17.2197 69.2366 17.1845 69.5631 17.1845C70.4159 17.1845 71.0507 17.4035 71.5016 17.8526C71.9479 18.2995 72.1752 18.9972 72.1752 19.9261C72.1752 20.8493 71.9515 21.5559 71.5096 22.029Z" fill="#0D1D2B"/>
<path d="M81.8695 22.7357V23.9132C81.8695 24.0345 81.7976 24.1434 81.6858 24.1943C81.5077 24.2748 81.2943 24.3429 81.0316 24.4032C80.769 24.4645 80.4824 24.495 80.1777 24.495C79.4001 24.495 78.7619 24.3692 78.2802 24.1184C77.7836 23.8611 77.4171 23.4935 77.1912 23.0261C76.9742 22.5781 76.8646 22.0541 76.8646 21.4665V17.366H75.8748C75.6978 17.366 75.5552 17.2274 75.5552 17.0563V15.8472C75.5552 15.6759 75.6978 15.5375 75.8748 15.5375H76.8646V13.6115C76.8646 13.4402 77.0072 13.3019 77.1843 13.3019H78.6193C78.7952 13.3019 78.9379 13.4403 78.9379 13.6115V15.5374H81.051C81.228 15.5374 81.3708 15.6758 81.3708 15.8471V17.0562C81.3708 17.2274 81.2282 17.3659 81.051 17.3659H78.9379V21.3462C78.9379 21.8328 79.0383 22.1797 79.237 22.3749C79.4334 22.569 79.7702 22.6676 80.2405 22.6676C80.4346 22.6676 80.6264 22.6471 80.8091 22.6076C80.994 22.5667 81.1561 22.5156 81.2897 22.4544C81.3331 22.4351 81.3787 22.4261 81.4255 22.4261H81.5499C81.7269 22.4261 81.8695 22.5645 81.8695 22.7357Z" fill="#0D1D2B"/>
<path d="M91.044 23.6568L91.0131 23.7769C90.9869 23.8756 90.915 23.955 90.8168 23.9913C90.5302 24.098 90.1693 24.1943 89.7448 24.2771C89.3348 24.3577 88.9125 24.4257 88.4901 24.4768C88.0687 24.529 87.7113 24.5562 87.4284 24.5562C86.8655 24.5562 86.3301 24.4996 85.8357 24.3884C85.3185 24.2737 84.8617 24.0662 84.477 23.7714C84.0877 23.473 83.7795 23.0623 83.5614 22.5519C83.349 22.0529 83.2417 21.4234 83.2417 20.6815V18.4458C83.2417 18.245 83.2383 17.9853 83.2337 17.6642C83.228 17.3455 83.2178 17.0278 83.2029 16.724C83.188 16.4313 83.1618 16.1998 83.1241 16.0354C83.1139 15.9878 83.1139 15.94 83.1265 15.8936L83.1573 15.7722C83.1927 15.6349 83.3207 15.5374 83.468 15.5374H84.9955C85.1726 15.5374 85.3153 15.6759 85.3153 15.8471V20.5601C85.3153 21.1693 85.4042 21.6343 85.5801 21.944C85.7456 22.2366 85.9797 22.4316 86.2971 22.5429C86.6499 22.6655 87.0882 22.7278 87.5997 22.7278C87.9137 22.7278 88.2401 22.7019 88.5701 22.6484C88.6727 22.6326 88.7733 22.6155 88.8704 22.5975C88.8601 22.3886 88.8555 22.1709 88.8555 21.9496V18.4459C88.8555 18.2451 88.8521 17.9854 88.8475 17.6643C88.8418 17.3421 88.8316 17.0258 88.8167 16.7241C88.8019 16.4314 88.7756 16.1999 88.7379 16.0355C88.7277 15.9879 88.7277 15.9401 88.7403 15.8937L88.7711 15.7723C88.8066 15.635 88.9344 15.5375 89.0818 15.5375H90.6093C90.7851 15.5375 90.929 15.676 90.929 15.8472V21.1035C90.929 21.3042 90.9314 21.5641 90.937 21.8839C90.9415 22.2016 90.9518 22.5191 90.9678 22.8265C90.9826 23.1192 91.0078 23.3506 91.0465 23.5139C91.0566 23.5616 91.0553 23.6102 91.044 23.6568Z" fill="#0D1D2B"/>
<path d="M100.395 16.2565L100.363 16.1352C100.338 16.0377 100.265 15.9572 100.168 15.9219C99.7491 15.7654 99.2661 15.6304 98.7308 15.5215C97.362 15.2436 96.1357 15.3275 95.1573 15.6701C94.5568 15.8798 94.0361 16.1872 93.6102 16.5831C93.1821 16.9825 92.8545 17.4678 92.6365 18.0272C92.4206 18.5773 92.311 19.2068 92.311 19.8964C92.311 20.855 92.5153 21.674 92.9173 22.3272C93.3236 22.9885 93.9002 23.4922 94.631 23.8245C95.3467 24.149 96.1848 24.3146 97.1221 24.3146C97.3858 24.3146 97.6645 24.293 97.9499 24.2499C98.0275 24.2397 98.1074 24.2261 98.1919 24.2114C98.161 24.597 98.0845 24.9259 97.9613 25.1913C97.8094 25.5192 97.5707 25.7563 97.2318 25.9162C96.8721 26.0864 96.3732 26.1726 95.7498 26.1726C95.4382 26.1726 95.0808 26.1408 94.688 26.0785C94.3067 26.0172 93.9527 25.9162 93.6366 25.7767C93.5955 25.7586 93.551 25.7495 93.5053 25.7495H93.3809C93.2039 25.7495 93.0611 25.8879 93.0611 26.0592V27.2978C93.0611 27.4214 93.1365 27.5326 93.253 27.5815C93.5887 27.722 93.9986 27.8287 94.4711 27.8979C94.9324 27.966 95.3629 28 95.7498 28C96.6906 28 97.507 27.8331 98.1782 27.5065C98.8632 27.1718 99.3918 26.6819 99.7491 26.049C100.101 25.4273 100.28 24.6787 100.28 23.8234V18.8085C100.28 18.6078 100.282 18.348 100.287 18.0271C100.293 17.7163 100.303 17.3998 100.318 17.0869C100.333 16.7942 100.359 16.5627 100.397 16.3982C100.408 16.3519 100.407 16.303 100.395 16.2565ZM98.2294 17.3216C98.2146 17.5417 98.2068 17.7776 98.2068 18.0227V22.3807C98.1211 22.401 98.0388 22.4181 97.9601 22.4294C97.7191 22.4669 97.4588 22.4862 97.1849 22.4862C96.2464 22.4862 95.5419 22.2718 95.0921 21.8486C94.6435 21.4278 94.4173 20.7711 94.4173 19.8954C94.4173 19.2817 94.5213 18.7668 94.7267 18.3641C94.9266 17.9728 95.2166 17.688 95.615 17.4907C96.025 17.2876 96.5523 17.1843 97.1849 17.1843C97.4931 17.1843 97.7831 17.2127 98.0446 17.2682C98.1085 17.2819 98.1702 17.2955 98.2307 17.3092C98.2307 17.3126 98.2307 17.3171 98.2294 17.3216Z" fill="#0D1D2B"/>
<path d="M109.59 17.4919C109.236 16.8066 108.734 16.2736 108.095 15.9061C107.46 15.5408 106.72 15.3559 105.897 15.3559C105.073 15.3559 104.333 15.5408 103.698 15.9061C103.06 16.2724 102.558 16.8056 102.204 17.4908C101.855 18.1658 101.679 18.9846 101.679 19.9261C101.679 20.8664 101.852 21.6843 102.195 22.3581C102.543 23.0443 103.041 23.5786 103.674 23.9461C104.303 24.3103 105.051 24.495 105.897 24.495C106.721 24.495 107.46 24.3113 108.095 23.9461C108.733 23.5797 109.236 23.0455 109.59 22.3604C109.939 21.6867 110.115 20.8666 110.115 19.9262C110.115 18.9859 109.939 18.1668 109.59 17.4919ZM104.346 22.0143C103.973 21.5595 103.784 20.8573 103.784 19.926C103.784 18.9856 103.972 18.2812 104.344 17.831C104.705 17.3965 105.213 17.1844 105.897 17.1844C106.58 17.1844 107.087 17.3965 107.448 17.831C107.82 18.2812 108.009 18.9856 108.009 19.926C108.009 20.8562 107.82 21.5583 107.447 22.0143C107.087 22.4533 106.58 22.6676 105.897 22.6676C105.213 22.6676 104.706 22.4533 104.346 22.0143Z" fill="#0D1D2B"/>
<path d="M63.7249 11.1308C63.7022 10.9805 63.5345 10.8204 63.3854 10.7854C62.8947 10.6726 62.5286 10.5925 62.0583 10.5498C61.5904 10.5047 61.1276 10.4822 60.6825 10.4822C59.7214 10.4822 58.8944 10.5874 58.2215 10.7927C57.5261 11.0032 56.9444 11.3289 56.4967 11.7598C56.0541 12.1831 55.7 12.7067 55.4395 13.3128C55.1891 13.8991 54.9968 14.5805 54.8678 15.3394L53.3882 24.1372C53.3705 24.2472 53.4009 24.3576 53.4742 24.4428C53.545 24.528 53.6512 24.5757 53.7625 24.5757H55.5759C55.7606 24.5757 55.9198 24.4428 55.9502 24.2624L56.575 20.5422H61.1906V24.1999C61.1906 24.4078 61.3601 24.5757 61.57 24.5757H63.3454C63.5553 24.5757 63.7248 24.4078 63.7248 24.1999V13.388C63.7249 13.0423 63.7249 11.1308 63.7249 11.1308ZM61.1908 13.3505V18.2529H56.9595L57.4298 15.4672C57.546 14.8286 57.7156 14.2975 57.9356 13.8967C58.138 13.5233 58.4338 13.2529 58.8361 13.0674C59.2535 12.872 59.8503 12.7743 60.609 12.7743C60.8315 12.7743 61.0264 12.7818 61.1956 12.7944C61.1929 12.9696 61.1908 13.1551 61.1908 13.3505Z" fill="#0D1D2B"/>
</svg>

<svg width="137" height="30" fill="none" xmlns="http://www.w3.org/2000/svg"><path d="M28 16.1a8.46 8.46 0 1 1 16.92 0 8.46 8.46 0 0 1-16.92 0Zm13.3 0a4.83 4.83 0 1 0-9.67 0 4.83 4.83 0 0 0 9.67 0ZM50.6 4.83a2.84 2.84 0 1 0-5.67.01 2.84 2.84 0 0 0 5.67 0Z" fill="#FF603D"/><path d="M73.96 18.02a3.98 3.98 0 0 0-2.39-2.36c-1-.36-2.28-.39-3.58-.13-.57.11-1.1.27-1.57.45a.31.31 0 0 0-.2.22l-.02.12a.3.3 0 0 0 0 .14c.03.16.06.4.07.69a27.6 27.6 0 0 1 .04 1.66v8.76c0 .17.15.3.32.3h1.44c.17 0 .32-.13.32-.3v-3.13l.43.07a5.85 5.85 0 0 0 2.65-.27c.59-.2 1.1-.52 1.52-.92.41-.4.73-.9.96-1.47.22-.57.33-1.22.33-1.92 0-.71-.1-1.35-.32-1.9Zm-2.45 4c-.43.47-1.11.7-2.01.7a5.08 5.08 0 0 1-1.11-.11v-4.53c0-.23-.01-.47-.03-.7v-.02l.26-.07c.3-.07.62-.1.94-.1.86 0 1.5.21 1.94.66.45.45.68 1.15.68 2.08 0 .92-.23 1.63-.67 2.1ZM81.87 22.74v1.17a.3.3 0 0 1-.18.28 3.77 3.77 0 0 1-1.5.3c-.79 0-1.43-.12-1.91-.37a2.4 2.4 0 0 1-1.09-1.1 3.55 3.55 0 0 1-.33-1.55v-4.1h-.99a.31.31 0 0 1-.31-.31v-1.21c0-.17.14-.31.31-.31h1V13.6c0-.17.14-.3.31-.3h1.44c.18 0 .32.13.32.3v1.93h2.11c.18 0 .32.14.32.3v1.22c0 .17-.14.3-.32.3h-2.11v3.99c0 .48.1.83.3 1.02.2.2.53.3 1 .3a2.7 2.7 0 0 0 1.05-.22.33.33 0 0 1 .14-.02h.12c.18 0 .32.13.32.3ZM91.04 23.66l-.03.12c-.02.1-.1.17-.2.21-.28.1-.64.2-1.07.29a17.32 17.32 0 0 1-2.31.28c-.56 0-1.1-.06-1.6-.17a3.43 3.43 0 0 1-1.35-.62c-.4-.3-.7-.7-.92-1.22a4.81 4.81 0 0 1-.32-1.87v-2.23a59.65 59.65 0 0 0-.04-1.73c-.01-.29-.04-.52-.08-.68a.3.3 0 0 1 0-.15l.04-.12a.32.32 0 0 1 .3-.23H85c.17 0 .32.14.32.3v4.72c0 .6.08 1.07.26 1.38.17.3.4.5.72.6.35.13.79.19 1.3.19a6.08 6.08 0 0 0 1.27-.13l-.01-.65v-3.5a59.65 59.65 0 0 0-.04-1.73c-.02-.29-.04-.52-.08-.68a.3.3 0 0 1 0-.15l.03-.12a.32.32 0 0 1 .31-.23h1.53c.18 0 .32.14.32.3v5.26a45.76 45.76 0 0 0 .04 1.73c.01.29.04.52.08.68v.15ZM100.4 16.26l-.04-.12a.31.31 0 0 0-.2-.22c-.41-.15-.9-.29-1.43-.4a6.78 6.78 0 0 0-3.57.15c-.6.21-1.12.52-1.55.91-.43.4-.76.89-.97 1.45a5.1 5.1 0 0 0-.33 1.87c0 .96.2 1.77.6 2.43.41.66.99 1.16 1.72 1.5a6 6 0 0 0 3.56.38c-.03.39-.1.72-.23.98-.15.33-.39.57-.73.73-.36.17-.86.25-1.48.25-.31 0-.67-.03-1.06-.1a4.3 4.3 0 0 1-1.05-.3.32.32 0 0 0-.13-.02h-.13a.31.31 0 0 0-.32.3v1.25c0 .12.08.23.2.28.33.14.74.25 1.21.32.46.07.9.1 1.28.1.94 0 1.76-.17 2.43-.5a3.55 3.55 0 0 0 1.57-1.45c.35-.62.53-1.37.53-2.23v-5.01a51.2 51.2 0 0 1 .04-1.72c.01-.3.04-.53.08-.7a.3.3 0 0 0 0-.13Zm-2.17 1.06c-.02.22-.02.46-.02.7v4.36l-.25.05c-.24.04-.5.06-.78.06-.93 0-1.64-.22-2.09-.64-.45-.42-.67-1.08-.67-1.95 0-.62.1-1.13.3-1.54.2-.39.5-.67.9-.87.4-.2.93-.3 1.56-.3a4.17 4.17 0 0 1 1.05.12v.01ZM109.59 17.5a3.8 3.8 0 0 0-1.5-1.6 4.35 4.35 0 0 0-2.2-.54c-.82 0-1.56.18-2.2.55a3.8 3.8 0 0 0-1.49 1.58c-.34.68-.52 1.5-.52 2.44s.17 1.75.51 2.43c.35.68.85 1.22 1.48 1.59.63.36 1.38.55 2.23.55.82 0 1.56-.19 2.2-.55a3.8 3.8 0 0 0 1.49-1.59c.35-.67.52-1.5.52-2.43 0-.94-.17-1.76-.52-2.44ZM104.35 22c-.38-.45-.57-1.15-.57-2.08 0-.94.2-1.65.56-2.1.36-.43.87-.65 1.56-.65.68 0 1.19.22 1.55.65.37.45.56 1.16.56 2.1 0 .93-.19 1.63-.56 2.08-.36.44-.87.66-1.55.66-.69 0-1.2-.22-1.55-.66ZM63.72 11.13c-.02-.15-.19-.31-.33-.34-.5-.12-.86-.2-1.33-.24a14.4 14.4 0 0 0-1.38-.07c-.96 0-1.79.1-2.46.31a4.21 4.21 0 0 0-2.78 2.52 9.04 9.04 0 0 0-.57 2.03l-1.48 8.8c-.02.1.01.22.08.3.08.09.18.14.3.14h1.8c.2 0 .35-.14.38-.32l.63-3.72h4.61v3.66c0 .2.17.38.38.38h1.78c.2 0 .37-.17.37-.38V11.13Zm-2.53 2.22v4.9h-4.23l.47-2.78c.12-.64.29-1.17.5-1.57.2-.38.5-.65.9-.83.42-.2 1.02-.3 1.78-.3l.59.02v.56Z" fill="#0D1D2B"/></svg>
